NotoEmoji/emoji_u1f4be.svg

<svg enable-background="new 0 0 128 128" viewBox="0 0 128 128" xmlns="http://www.w3.org/2000/svg"><path d="m124.17 27.95v87.49c0 4.82-3.91 8.73-8.73 8.73h-102.88c-4.82 0-8.73-3.91-8.73-8.73v-102.88c0-4.82 3.91-8.73 8.73-8.73h89.64c3.56 0 6.94 1.59 9.21 4.34l10.04 12.19c1.76 2.14 2.72 4.82 2.72 7.59z" fill="#616161"/><path d="m103.94 124.17h-79.94v-52.92c0-1.81 1.47-3.28 3.28-3.28h73.39c1.81 0 3.28 1.47 3.28 3.28v52.92z" fill="#fff"/><path d="m24 111.92h79.94v12.25h-79.94z" fill="#039be5"/><path d="m16.75 3.83v47.75c0 1.78 1.57 3.17 3.65 3.17h76.65c2.08 0 3.69-1.38 3.69-3.17v-47.75z" fill="#424242"/><path d="m35 3.83v45.02c0 1.68 1.18 2.98 2.74 2.98h57.46c1.56 0 2.77-1.3 2.77-2.98v-45.02zm50.97 42.69c0 .72-.59 1.31-1.31 1.31h-17.38c-.72 0-1.31-.59-1.31-1.31v-37.38c0-.72.59-1.31 1.31-1.31h17.38c.72 0 1.31.59 1.31 1.31z" fill="#e0e0e0"/></svg>

<?xml version="1.0" encoding="utf-8"?>
<!-- Generator: Adobe Illustrator 25.2.3, SVG Export Plug-In . SVG Version: 6.00 Build 0)  -->
<svg version="1.1" id="Layer_1_copy_2" xmlns="http://www.w3.org/2000/svg" xmlns:xlink="http://www.w3.org/1999/xlink" x="0px"
	 y="0px" viewBox="0 0 128 128" style="enable-background:new 0 0 128 128;" xml:space="preserve">
<path style="fill:#616161;" d="M124.17,27.95v87.49c0,4.82-3.91,8.73-8.73,8.73H12.56c-4.82,0-8.73-3.91-8.73-8.73V12.56
	c0-4.82,3.91-8.73,8.73-8.73h89.64c3.56,0,6.94,1.59,9.21,4.34l10.04,12.19C123.21,22.5,124.17,25.18,124.17,27.95z"/>
<path style="fill:#FFFFFF;" d="M103.94,124.17H24V71.25c0-1.81,1.47-3.28,3.28-3.28h73.39c1.81,0,3.28,1.47,3.28,3.28V124.17z"/>
<rect x="24" y="111.92" style="fill:#039BE5;" width="79.94" height="12.25"/>
<path style="fill:#424242;" d="M16.75,3.83v47.75c0,1.78,1.57,3.17,3.65,3.17h76.65c2.08,0,3.69-1.38,3.69-3.17V3.83H16.75z"/>
<path style="fill:#E0E0E0;" d="M35,3.83v45.02c0,1.68,1.18,2.98,2.74,2.98H95.2c1.56,0,2.77-1.3,2.77-2.98V3.83H35z M85.97,46.52
	c0,0.72-0.59,1.31-1.31,1.31H67.28c-0.72,0-1.31-0.59-1.31-1.31V9.14c0-0.72,0.59-1.31,1.31-1.31h17.38c0.72,0,1.31,0.59,1.31,1.31
	V46.52z"/>
</svg>
